X:1
T:Jesus, Rose of Sharon
T:Jesus, Rose of Sharon
T:Charles Hutchinson Gabriel
T:Ida Augusta Guirey, 1922
T:Public Domain Courtesy of the Cyber Hymnal™
T:Public Domain Courtesy of the Cyber Hymnal™
C:Charles Hutchinson Gabriel
Z:Public Domain
Z:Courtesy of the Cyber Hymnal™
%%score ( 1 2 ) ( 3 4 )
L:1/8
Q:1/4=110
M:3/4
K:E
V:1 treble 
V:2 treble 
V:3 bass 
V:4 bass 
V:1
 [EG]3 [B,F] [B,E][B,F] | [EG]2 [EB]4 | [Ec]3 [EB] E[DF] | [EG]6 | [DF]3 [^^C^E] [DF][=EG] | %5
w: 1.~Je- sus, Rose of|Shar- on,|bloom with- in my|heart;|Beau- ties of Thy|
w: 2.~Je- sus, Rose of|Shar- on,|sweet- er far to|see|Than the fair- est|
w: 3.~Je- sus, Rose of|Shar- on,|balm for ev- ery|ill,|May Thy ten- der|
w: 4.~Je- sus, Rose of|Shar- on,|bloom for- ev- er-|more;|Be Thy glo- ry|
 [DA]3 [DB] [Fd][Ac] | [GB]4 [FA]2 | [EG]6 | [EG]3 [B,F] [B,E][B,F] | [EG]3 [EA] [EB]E | %10
w: truth and ho- li-|ness im-|part,|That wher- e’er I|go my life may|
w: flowers of earth could|ev- er|be,|Fill my life com-|plete- ly, add- ing|
w: mer- cy’s heal- ing|power dis-|til|For af- flict- ed|souls of wea- ry|
w: seen on earth from|shore to|shore,|Till the na- tions|own Thy sov- ereign-|
 [Ee]4 [Ed]2 | [Ec]6 | (e2 d2) [Ec]2 x | [EB]3 [Ec] [EB][EG] | E[FA] [EG]2 [DF]2 | E6 || %16
w: shed a-|broad|Fra- * grance|of the know- ledge|of the love of|God.|
w: more each|day|Of * Thy|grace di- vine and|pur- i- ty, I|pray.|
w: bur- dened|men,|Giv- * ing|need- y mor- tals|health and hope a-|gain.|
w: ty com-|plete,|Lay * their|hon- ors down and|wor- ship at Thy|feet.|
"^Refrain" B2 z2 x4 | B4 cB | B2 (z2 x4 | B4) E4 | e2 d2 [Ec]2 x | [EB]3 [Ec] [EB][EG] | %22
w: ||||||
w: Je-|* sus, Rose|of|* Shar-|* * on,|Bloom in ra- diance|
w: ||||||
w: ||||||
 E[FA] [EG]2 [B,F]2 | [B,E]6 |] %24
w: ||
w: and in love with-|in|
w: ||
w: ||
V:2
 x6 | x6 | x6 | x6 | x6 | x6 | x6 | x6 | x6 | x6 | x6 | x6 | E4 x3 | x6 | E x5 | E6 || x2 B4- DE | %17
 (FE D2) x2 | x2 B4- EF | GF x6 | E4 x3 | x6 | E x5 | x6 |] %24
V:3
 [E,B,]3 [E,A,] [E,G,][E,A,] | [E,B,]2 G,4 | [E,A,]3 [E,G,] [G,B,]B, | [E,B,]6 | %4
w: ~ ~ ~ ~|~ ~|~ ~ ~ ~|~|
 [B,,A,]3 [B,,G,] [B,,A,][B,,G,] | [B,,F,]3 [B,,F,] [B,,B,][B,,B,] | [B,,B,]4 B,2 | [E,B,]6 | %8
w: ~ ~ ~ ~|~ ~ ~ ~|~ ~|~|
 [E,B,]3 [E,A,] [E,G,][E,A,] | [E,B,]3 [E,F,] [E,G,][E,G,] | [G,B,]4 [G,B,]2 | A,6 | %12
w: ~ ~ ~ ~|~ ~ ~ ~|~ ~|~|
 (C2 z) B,, A,2 x | [E,G,]3 [E,A,] [E,G,][E,B,] | [C,C][A,,C] [B,,B,]2 [B,,A,]2 | [E,G,]6 || %16
w: ~ ~ ~|~ ~ ~ ~|~ ~ ~ ~|~|
 z2 z2 [B,,F,][B,,G,] x2 | (A,G,) [B,,F,]4 | z2 z2 [E,G,][E,A,] x2 | (B,A,) [E,G,]4 x2 | %20
w: Bless- ed|Je- * sus,|Rose of|Shar- * on|
 C2 z B,, A,2 x | [E,G,]3 [E,A,] [E,G,][E,B,] | [C,C][A,,C] [B,,B,]2 [B,,A,]2 | [E,G,]6 |] %24
w: ||||
V:4
 x6 | x2 G,4 | x5 B, | x6 | x6 | x6 | x4 (C,D,) | x6 | x6 | x6 | x6 | A,6 | A,,3 (B,2 C,D,) | x6 | %14
 x6 | x6 || x8 | B,,2 x4 | x8 | E,2 x6 | A,,3 (B,2 C,D,) | x6 | x6 | x6 |] %24

